packages/icons/raw/imported/GenericAlarm.svg

<svg width="32" height="32" viewBox="0 0 32 32" fill="none" xmlns="http://www.w3.org/2000/svg">
<path d="M16.5 21C16.5 20.7238 16.2761 20.5 16 20.5C15.7239 20.5 15.5 20.7238 15.5 21H16.5ZM15.5 21.7C15.5 21.9761 15.7239 22.2 16 22.2C16.2761 22.2 16.5 21.9761 16.5 21.7H15.5ZM16.5 13.3C16.5 13.0239 16.2761 12.8 16 12.8C15.7239 12.8 15.5 13.0239 15.5 13.3H16.5ZM15.5 18.55C15.5 18.8262 15.7239 19.05 16 19.05C16.2761 19.05 16.5 18.8262 16.5 18.55H15.5ZM23.1516 25.2V24.7V25.2ZM8.84843 25.2V25.7V25.2ZM17.0319 7.61633L17.4721 7.37928V7.37928L17.0319 7.61633ZM24.9125 22.2518L25.3527 22.0148L24.9125 22.2518ZM14.9681 7.61633L14.5279 7.37928V7.37928L14.9681 7.61633ZM7.08749 22.2518L7.52772 22.4889L7.08749 22.2518ZM15.5 21V21.7H16.5V21H15.5ZM15.5 13.3V18.55H16.5V13.3H15.5ZM23.1516 24.7H8.84843V25.7H23.1516V24.7ZM16.5916 7.85338L24.4723 22.4889L25.3527 22.0148L17.4721 7.37928L16.5916 7.85338ZM14.5279 7.37928L6.64725 22.0148L7.52772 22.4889L15.4084 7.85338L14.5279 7.37928ZM16 6.5C15.3849 6.5 14.8195 6.83772 14.5279 7.37928L15.4084 7.85338C15.5256 7.63573 15.7528 7.5 16 7.5V6.5ZM17.4721 7.37928C17.1805 6.83772 16.6151 6.5 16 6.5V7.5C16.2472 7.5 16.4744 7.63573 16.5916 7.85338L17.4721 7.37928ZM8.84843 24.7C7.71342 24.7 6.98962 23.4882 7.52772 22.4889L6.64725 22.0148C5.7504 23.6803 6.95675 25.7 8.84843 25.7V24.7ZM23.1516 25.7C25.0433 25.7 26.2496 23.6803 25.3527 22.0148L24.4723 22.4889C25.0104 23.4882 24.2866 24.7 23.1516 24.7V25.7Z" fill="black"/>
</svg>

<svg width="32" height="32" fill="none" xmlns="http://www.w3.org/2000/svg"><path d="M16.5 21a.5.5 0 1 0-1 0h1Zm-1 .7a.5.5 0 0 0 1 0h-1Zm1-8.4a.5.5 0 0 0-1 0h1Zm-1 5.25a.5.5 0 1 0 1 0h-1Zm7.652 6.65v-.5.5Zm-14.304 0v.5-.5Zm8.184-17.584.44-.237-.44.237Zm7.88 14.636.44-.237-.44.237ZM14.969 7.616l-.44-.237.44.237Zm-7.88 14.636.44.237-.44-.237ZM15.5 21v.7h1V21h-1Zm0-7.7v5.25h1V13.3h-1Zm7.652 11.4H8.848v1h14.304v-1Zm-6.56-16.847 7.88 14.636.88-.474-7.88-14.636-.88.474Zm-2.064-.474-7.88 14.636.88.474 7.88-14.636-.88-.474ZM16 6.5c-.615 0-1.18.338-1.472.88l.88.473A.672.672 0 0 1 16 7.5v-1Zm1.472.88A1.672 1.672 0 0 0 16 6.5v1c.247 0 .474.136.592.353l.88-.474ZM8.848 24.7a1.5 1.5 0 0 1-1.32-2.211l-.88-.474c-.898 1.665.309 3.685 2.2 3.685v-1Zm14.304 1c1.891 0 3.098-2.02 2.2-3.685l-.88.474a1.5 1.5 0 0 1-1.32 2.211v1Z" fill="#000"/></svg>
